assets/Bug/Flat/bug_flat.svg

<svg width="32" height="32" viewBox="0 0 32 32" fill="none" xmlns="http://www.w3.org/2000/svg">
<path d="M2.6272 3.69393C2.79618 3.37207 3.19408 3.24814 3.51593 3.41712L5.11458 4.25644C6.39399 4.92099 7.19817 6.25709 7.19817 7.6999V9.0099C7.19817 9.37341 6.90348 9.6681 6.53997 9.6681C6.17646 9.6681 5.88177 9.37341 5.88177 9.0099V7.6999C5.88177 6.74326 5.34656 5.85986 4.50683 5.42415L4.504 5.42268L2.90401 4.58265C2.58216 4.41367 2.45823 4.01578 2.6272 3.69393Z" fill="#008463"/>
<path d="M12.8028 3.69393C12.9718 4.01578 12.8478 4.41367 12.526 4.58265L10.9232 5.42416C10.0834 5.85987 9.54822 6.74326 9.54822 7.6999V9.0099C9.54822 9.37341 9.25354 9.6681 8.89002 9.6681C8.52651 9.6681 8.23182 9.37341 8.23182 9.0099V7.6999C8.23182 6.25709 9.036 4.92099 10.3154 4.25644L11.9141 3.41712C12.2359 3.24814 12.6338 3.37207 12.8028 3.69393Z" fill="#008463"/>
<path d="M12.23 20.9C12.9646 20.9 13.56 20.3045 13.56 19.5699C13.56 18.8354 12.9646 18.24 12.23 18.24C11.4955 18.24 10.9 18.8354 10.9 19.5699C10.9 20.3045 11.4955 20.9 12.23 20.9Z" fill="#008463"/>
<path d="M14.89 23.56C14.89 24.2945 14.2945 24.89 13.56 24.89C12.8254 24.89 12.23 24.2945 12.23 23.56C12.23 22.8255 12.8254 22.23 13.56 22.23C14.2945 22.23 14.89 22.8255 14.89 23.56Z" fill="#008463"/>
<path d="M16.22 28.16C16.9546 28.16 17.55 27.5646 17.55 26.83C17.55 26.0955 16.9546 25.5 16.22 25.5C15.4855 25.5 14.89 26.0955 14.89 26.83C14.89 27.5646 15.4855 28.16 16.22 28.16Z" fill="#008463"/>
<path d="M21.9799 28.02C21.9799 28.7545 21.3845 29.35 20.6499 29.35C19.9154 29.35 19.3199 28.7545 19.3199 28.02C19.3199 27.2854 19.9154 26.6899 20.6499 26.6899C21.3845 26.6899 21.9799 27.2854 21.9799 28.02Z" fill="#008463"/>
<path d="M26.58 28.02C26.58 28.7545 25.9846 29.35 25.25 29.35C24.5155 29.35 23.92 28.7545 23.92 28.02C23.92 27.2854 24.5155 26.6899 25.25 26.6899C25.9846 26.6899 26.58 27.2854 26.58 28.02Z" fill="#008463"/>
<path d="M20.36 28.02H26.25C28.28 28.02 29.99 26.3599 29.95 24.3199C29.91 22.3499 28.3 20.7599 26.32 20.7599H21.88C20.92 20.7599 20.08 20.1199 19.83 19.1899L18.24 13.41C17.36 10.2 14.44 7.97998 11.12 7.97998H6.46997C4.91714 7.97998 3.55154 8.95132 3.01326 10.3211L2.32031 11.68L3.01326 12.9165C3.53913 14.2747 4.85724 15.24 6.39997 15.24H9.59997C10.56 15.24 11.4 15.88 11.65 16.81L13.24 22.59C14.12 25.8 17.04 28.02 20.36 28.02Z" fill="#00D26A"/>
<path d="M2.76997 11.68C2.76049 11.196 2.84949 10.7334 3.01789 10.3093C2.96046 10.2967 2.90093 10.29 2.84 10.29C2.38 10.29 2 10.66 2 11.13V12.11C2 12.57 2.38 12.95 2.84 12.95C2.90122 12.95 2.96103 12.9433 3.01871 12.9305C2.8663 12.5417 2.77892 12.1203 2.76997 11.68Z" fill="#212121"/>
<path d="M6.03999 11.13C6.03999 10.67 5.65999 10.29 5.19999 10.29C4.72999 10.29 4.35999 10.66 4.35999 11.13V12.11C4.35999 12.57 4.73999 12.95 5.19999 12.95C5.65999 12.95 6.03999 12.57 6.03999 12.11V11.13Z" fill="#212121"/>
</svg>

<svg xmlns="http://www.w3.org/2000/svg" width="32" height="32" fill="none"><path fill="#008463" d="M2.627 3.694a.658.658 0 0 1 .889-.277l1.599.84c1.279.664 2.083 2 2.083 3.443v1.31a.658.658 0 0 1-1.316 0V7.7a2.57 2.57 0 0 0-1.375-2.276l-.003-.001-1.6-.84a.658.658 0 0 1-.277-.89ZM12.803 3.694a.658.658 0 0 1-.277.889l-1.603.841A2.57 2.57 0 0 0 9.548 7.7v1.31a.658.658 0 1 1-1.316 0V7.7c0-1.443.804-2.779 2.083-3.444l1.6-.839a.658.658 0 0 1 .888.277ZM12.23 20.9a1.33 1.33 0 1 0 0-2.66 1.33 1.33 0 0 0 0 2.66ZM14.89 23.56a1.33 1.33 0 1 1-2.66 0 1.33 1.33 0 0 1 2.66 0ZM16.22 28.16a1.33 1.33 0 1 0 0-2.66 1.33 1.33 0 0 0 0 2.66ZM21.98 28.02a1.33 1.33 0 1 1-2.66 0 1.33 1.33 0 0 1 2.66 0ZM26.58 28.02a1.33 1.33 0 1 1-2.66 0 1.33 1.33 0 0 1 2.66 0Z"/><path fill="#00D26A" d="M20.36 28.02h5.89c2.03 0 3.74-1.66 3.7-3.7a3.635 3.635 0 0 0-3.63-3.56h-4.44c-.96 0-1.8-.64-2.05-1.57l-1.59-5.78a7.384 7.384 0 0 0-7.12-5.43H6.47a3.73 3.73 0 0 0-3.457 2.341L2.32 11.68l.693 1.236A3.634 3.634 0 0 0 6.4 15.24h3.2c.96 0 1.8.64 2.05 1.57l1.59 5.78c.88 3.21 3.8 5.43 7.12 5.43Z"/><path fill="#212121" d="M2.77 11.68c-.01-.484.08-.947.248-1.37A.839.839 0 0 0 2 11.13v.98a.845.845 0 0 0 1.019.82 3.622 3.622 0 0 1-.249-1.25ZM6.04 11.13c0-.46-.38-.84-.84-.84-.47 0-.84.37-.84.84v.98c0 .46.38.84.84.84.46 0 .84-.38.84-.84v-.98Z"/></svg>
